static/img/business.svg

<?xml version="1.0" encoding="UTF-8"?> <svg xmlns="http://www.w3.org/2000/svg" width="179" height="46" viewBox="0 0 179 46" fill="none"><path fill-rule="evenodd" clip-rule="evenodd" d="M1.21166 0.541504H0.0866585V1.6665V2.12931L0.00994474 2.20778L0.0866585 2.28277V34.088V35.213H0.0889126L0 35.3018L10.1382 45.4608L10.4678 45.7911H10.9345H23.1771H45.1421H46.2671V44.6661V12.2446V11.1312L46.3586 11.0396L36.1809 0.870665L35.8514 0.541504H35.3857H23.1766H1.21166ZM2.33666 4.48235V32.963H22.0521V24.4242H22.0516V24.1584H12.0311H10.9061V23.0334V12.8598L2.33666 4.48235ZM13.1561 13.8683L13.6436 13.3696H22.0516V21.9084H13.1561V13.8683ZM12.3447 11.1196L3.82571 2.7915H22.0516V11.1196H12.3447ZM43.2553 11.1196L34.92 2.7915H24.3016V11.1196H43.2553ZM24.3016 21.9084V13.3696H44.0171V42.0835L35.2871 33.5492V23.2992V22.1742H34.1621H24.3021V21.9084H24.3016ZM33.7704 35.213L42.2895 43.5411H24.3021V35.213H33.7704ZM32.5719 32.963L33.0371 32.4872V24.4242H24.3021V32.963H32.5719ZM22.0521 35.213H3.09017L11.4012 43.5411H22.0521V35.213Z" fill="#0CC2FF"></path><path d="M67.6278 31.2643L69.4592 33.0957V38.1727L67.6278 40.0041H57.8679V25.3528H65.7963L67.6278 27.1842V31.2643ZM60.0703 27.5551V31.2643H65.4254V28.0883L64.8922 27.5551H60.0703ZM67.2568 37.2686V33.9999L66.7236 33.4667H60.0703V37.8018H66.7236L67.2568 37.2686Z" fill="#0CC2FF"></path><path d="M82.7801 25.3528H84.9824V38.1727L83.151 40.0041H75.2226L73.3912 38.1727V25.3528H75.5935V37.2686L76.1267 37.8018H82.2469L82.7801 37.2686V25.3528Z" fill="#0CC2FF"></path><path d="M98.6742 25.3528L100.506 27.1842V29.6184H98.3033V28.0883L97.7701 27.5551H91.6499L91.1167 28.0883V30.7311L91.6499 31.2643H98.6742L100.506 33.0957V38.1727L98.6742 40.0041H90.7458L88.9144 38.1727V35.7386H91.1167V37.2686L91.6499 37.8018H97.7701L98.3033 37.2686V33.9999L97.7701 33.4667H90.7458L88.9144 31.6352V27.1842L90.7458 25.3528H98.6742Z" fill="#0CC2FF"></path><path d="M111.346 27.5551V37.8018H116.029V40.0041H104.438V37.8018H109.144V27.5551H104.438V25.3528H116.029V27.5551H111.346Z" fill="#0CC2FF"></path><path d="M129.35 25.3528H131.552V40.0041H129.35L122.163 29.2938V40.0041H119.961V25.3528H122.163L129.35 36.0167V25.3528Z" fill="#0CC2FF"></path><path d="M138.22 27.5551L137.686 28.0883V31.0789H144.641V33.2812H137.686V37.8018H147.075V40.0041H135.484V27.1842L137.316 25.3528H147.075V27.5551H138.22Z" fill="#0CC2FF"></path><path d="M160.767 25.3528L162.599 27.1842V29.6184H160.396V28.0883L159.863 27.5551H153.743L153.21 28.0883V30.7311L153.743 31.2643H160.767L162.599 33.0957V38.1727L160.767 40.0041H152.839L151.007 38.1727V35.7386H153.21V37.2686L153.743 37.8018H159.863L160.396 37.2686V33.9999L159.863 33.4667H152.839L151.007 31.6352V27.1842L152.839 25.3528H160.767Z" fill="#0CC2FF"></path><path d="M176.29 25.3528L178.122 27.1842V29.6184H175.92V28.0883L175.386 27.5551H169.266L168.733 28.0883V30.7311L169.266 31.2643H176.29L178.122 33.0957V38.1727L176.29 40.0041H168.362L166.531 38.1727V35.7386H168.733V37.2686L169.266 37.8018H175.386L175.92 37.2686V33.9999L175.386 33.4667H168.362L166.531 31.6352V27.1842L168.362 25.3528H176.29Z" fill="#0CC2FF"></path><path fill-rule="evenodd" clip-rule="evenodd" d="M57.6086 25.0935H65.904L67.8874 27.0769V31.157L69.7188 32.9884V38.2803L67.7354 40.2637H57.6086V25.0935ZM58.1275 25.6124V39.7449H67.5205L69.1999 38.0654V33.2034L67.3685 31.372V27.2918L65.689 25.6124H58.1275ZM73.1319 25.0935H75.8531V37.1613L76.2343 37.5425H82.1396L82.5208 37.1613V25.0935H85.242V38.2803L83.2586 40.2637H75.1153L73.1319 38.2803V25.0935ZM73.6508 25.6124V38.0654L75.3302 39.7449H83.0437L84.7232 38.0654V25.6124H83.0397V37.3762L82.3545 38.0614H76.0194L75.3342 37.3762V25.6124H73.6508ZM90.6385 25.0935H98.7819L100.765 27.0769V29.878H98.0441V28.1959L97.6628 27.8147H91.7576L91.3763 28.1959V30.6238L91.7576 31.0051H98.7819L100.765 32.9884V38.2803L98.7819 40.2637H90.6385L88.6551 38.2803V35.4793H91.3763V37.1613L91.7576 37.5425H97.6628L98.0441 37.1613V34.1075L97.6628 33.7263H90.6385L88.6551 31.7429V27.0769L90.6385 25.0935ZM90.8534 25.6124L89.174 27.2918V31.5279L90.8534 33.2074H97.8778L98.5629 33.8926V37.3762L97.8778 38.0614H91.5426L90.8575 37.3762V35.9982H89.174V38.0654L90.8534 39.7449H98.5669L100.246 38.0654V33.2034L98.567 31.5239H91.5426L90.8575 30.8388V27.981L91.5426 27.2958H97.8778L98.5629 27.981V29.3591H100.246V27.2918L98.5669 25.6124H90.8534ZM104.178 25.0935H116.289V27.8147H111.606V37.5425H116.289V40.2637H104.178V37.5425H108.884V27.8147H104.178V25.0935ZM104.697 25.6124V27.2958H109.403V38.0614H104.697V39.7449H115.77V38.0614H111.087V27.2958H115.77V25.6124H104.697ZM119.702 25.0935H122.301L129.091 35.1677V25.0935H131.812V40.2637H129.212L122.423 30.1462V40.2637H119.702V25.0935ZM120.22 25.6124V39.7449H121.904V28.4417L129.488 39.7449H131.293V25.6124H129.609V36.8661L122.025 25.6124H120.22ZM137.208 25.0935H147.335V27.8147H138.327L137.946 28.1959V30.8196H144.901V33.5408H137.946V37.5425H147.335V40.2637H135.225V27.0769L137.208 25.0935ZM137.423 25.6124L135.744 27.2918V39.7449H146.816V38.0614H137.427V33.0219H144.382V31.3385H137.427V27.981L138.112 27.2958H146.816V25.6124H137.423ZM152.731 25.0935H160.875L162.858 27.0769V29.878H160.137V28.1959L159.756 27.8147H153.851L153.469 28.1959V30.6238L153.851 31.0051H160.875L162.858 32.9884V38.2803L160.875 40.2637H152.731L150.748 38.2803V35.4793H153.469V37.1613L153.851 37.5425H159.756L160.137 37.1613V34.1075L159.756 33.7263H152.731L150.748 31.7429V27.0769L152.731 25.0935ZM152.946 25.6124L151.267 27.2918V31.528L152.946 33.2074H159.971L160.656 33.8926V37.3762L159.971 38.0614H153.636L152.95 37.3762V35.9982H151.267V38.0654L152.946 39.7449H160.66L162.339 38.0654V33.2034L160.66 31.5239H153.636L152.95 30.8388V27.981L153.636 27.2958H159.971L160.656 27.981V29.3591H162.339V27.2918L160.66 25.6124H152.946ZM168.255 25.0935H176.398L178.381 27.0769V29.878H175.66V28.1959L175.279 27.8147H169.374L168.993 28.1959V30.6238L169.374 31.0051H176.398L178.381 32.9884V38.2803L176.398 40.2637H168.255L166.271 38.2803V35.4793H168.993V37.1613L169.374 37.5425H175.279L175.66 37.1613V34.1075L175.279 33.7263H168.255L166.271 31.7429V27.0769L168.255 25.0935ZM168.47 25.6124L166.79 27.2918V31.528L168.47 33.2074H175.494L176.179 33.8926V37.3762L175.494 38.0614H169.159L168.474 37.3762V35.9982H166.79V38.0654L168.47 39.7449H176.183L177.863 38.0654V33.2034L176.183 31.5239H169.159L168.474 30.8388V27.981L169.159 27.2958H175.494L176.179 27.981V29.3591H177.863V27.2918L176.183 25.6124H168.47ZM59.811 27.2958H64.9998L65.685 27.981V31.5239H59.811V27.2958ZM60.3299 27.8147V31.0051H65.1661V28.1959L64.7849 27.8147H60.3299ZM59.811 33.2074H66.8313L67.5164 33.8926V37.3762L66.8313 38.0614H59.811V33.2074ZM60.3299 33.7263V37.5425H66.6163L66.9976 37.1613V34.1075L66.6163 33.7263H60.3299Z" fill="#0CC2FF"></path><path d="M67.3688 6.0686L69.2003 7.90009V10.9603H66.9979V8.80424L66.4647 8.27102H60.3443L59.8111 8.80424V17.9849L60.3443 18.5181H66.4647L66.9979 17.9849V15.8288H69.2003V18.889L67.3688 20.7205H59.4401L57.6086 18.889V7.90009L59.4401 6.0686H67.3688Z" fill="white"></path><path d="M82.8926 6.0686L84.7241 7.90009V13.9973L82.8926 15.8288H79.8324L84.7241 20.7205H81.6176L76.7259 15.8288H75.3349V20.7205H73.1324V6.0686H82.8926ZM82.5217 13.0932V8.80424L81.9885 8.27102H75.3349V13.6264H81.9885L82.5217 13.0932Z" fill="white"></path><path d="M98.4165 6.0686L100.248 7.90009V18.889L98.4165 20.7205H90.4877L88.6562 18.889V7.90009L90.4877 6.0686H98.4165ZM98.0455 17.9849V8.80424L97.5123 8.27102H91.3919L90.8587 8.80424V17.9849L91.3919 18.5181H97.5123L98.0455 17.9849Z" fill="white"></path><path d="M113.94 6.0686L115.772 7.90009V10.3343H113.569V8.80424L113.036 8.27102H106.916L106.382 8.80424V11.4471L106.916 11.9804H113.94L115.772 13.8119V18.889L113.94 20.7205H106.012L104.18 18.889V16.4548H106.382V17.9849L106.916 18.5181H113.036L113.569 17.9849V14.716L113.036 14.1828H106.012L104.18 12.3513V7.90009L106.012 6.0686H113.94Z" fill="white"></path><path d="M129.464 6.0686L131.296 7.90009V10.3343H129.093V8.80424L128.56 8.27102H122.439L121.906 8.80424V11.4471L122.439 11.9804H129.464L131.296 13.8119V18.889L129.464 20.7205H121.535L119.704 18.889V16.4548H121.906V17.9849L122.439 18.5181H128.56L129.093 17.9849V14.716L128.56 14.1828H121.535L119.704 12.3513V7.90009L121.535 6.0686H129.464Z" fill="white"></path><path d="M137.963 8.27102L137.43 8.80424V11.7949H144.385V13.9973H137.43V20.7205H135.228V7.90009L137.059 6.0686H146.819V8.27102H137.963Z" fill="white"></path><path d="M157.66 8.27102V18.5181H162.343V20.7205H150.751V18.5181H155.458V8.27102H150.751V6.0686H162.343V8.27102H157.66Z" fill="white"></path></svg>

<?xml version="1.0" encoding="utf-8"?>
<!-- Generator: Adobe Illustrator 28.3.0, SVG Export Plug-In . SVG Version: 6.00 Build 0)  -->
<svg version="1.1" id="katman_1" xmlns="http://www.w3.org/2000/svg" xmlns:xlink="http://www.w3.org/1999/xlink" x="0px" y="0px"
	 viewBox="0 0 179 46" style="enable-background:new 0 0 179 46;" xml:space="preserve">
<style type="text/css">
	.st0{fill-rule:evenodd;clip-rule:evenodd;fill:#0CC2FF;}
	.st1{fill:#0CC2FF;}
	.st2{fill:#0CC2FF;stroke:#0CC2FF;}
</style>
<path class="st0" d="M1.2,0.5H0.1v1.1v0.5L0,2.2l0.1,0.1v31.8v1.1h0L0,35.3l10.1,10.2l0.3,0.3h0.5h12.2h22h1.1v-1.1V12.2v-1.1
	l0.1-0.1L36.2,0.9l-0.3-0.3h-0.5H23.2H1.2z M2.3,4.5V33h19.7v-8.5h0v-0.3H12h-1.1V23V12.9L2.3,4.5z M13.2,13.9l0.5-0.5h8.4v8.5h-8.9
	V13.9z M12.3,11.1L3.8,2.8h18.2v8.3H12.3z M43.3,11.1l-8.3-8.3H24.3v8.3H43.3z M24.3,21.9v-8.5H44v28.7l-8.7-8.5V23.3v-1.1h-1.1
	h-9.9L24.3,21.9L24.3,21.9z M33.8,35.2l8.5,8.3h-18v-8.3H33.8z M32.6,33l0.5-0.5v-8.1h-8.7V33H32.6z M22.1,35.2h-19l8.3,8.3h10.7
	V35.2z"/>
<path class="st1" d="M67.6,31.3l1.8,1.8v5.1L67.6,40h-9.8V25.4h7.9l1.8,1.8V31.3z M60.1,27.6v3.7h5.4v-3.2l-0.5-0.5H60.1z
	 M67.3,37.3V34l-0.5-0.5h-6.7v4.3h6.7L67.3,37.3z"/>
<path class="st1" d="M82.8,25.4H85v12.8L83.2,40h-7.9l-1.8-1.8V25.4h2.2v11.9l0.5,0.5h6.1l0.5-0.5V25.4z"/>
<path class="st1" d="M98.7,25.4l1.8,1.8v2.4h-2.2v-1.5l-0.5-0.5h-6.1l-0.5,0.5v2.6l0.5,0.5h7l1.8,1.8v5.1L98.7,40h-7.9l-1.8-1.8
	v-2.4h2.2v1.5l0.5,0.5h6.1l0.5-0.5V34l-0.5-0.5h-7l-1.8-1.8v-4.5l1.8-1.8H98.7z"/>
<path class="st1" d="M111.3,27.6v10.2h4.7V40h-11.6v-2.2h4.7V27.6h-4.7v-2.2H116v2.2H111.3z"/>
<path class="st1" d="M129.4,25.4h2.2V40h-2.2l-7.2-10.7V40H120V25.4h2.2l7.2,10.7V25.4z"/>
<path class="st1" d="M138.2,27.6l-0.5,0.5v3h7v2.2h-7v4.5h9.4V40h-11.6V27.2l1.8-1.8h9.8v2.2H138.2z"/>
<path class="st1" d="M160.8,25.4l1.8,1.8v2.4h-2.2v-1.5l-0.5-0.5h-6.1l-0.5,0.5v2.6l0.5,0.5h7l1.8,1.8v5.1l-1.8,1.8h-7.9l-1.8-1.8
	v-2.4h2.2v1.5l0.5,0.5h6.1l0.5-0.5V34l-0.5-0.5h-7l-1.8-1.8v-4.5l1.8-1.8H160.8z"/>
<path class="st1" d="M176.3,25.4l1.8,1.8v2.4h-2.2v-1.5l-0.5-0.5h-6.1l-0.5,0.5v2.6l0.5,0.5h7l1.8,1.8v5.1l-1.8,1.8h-7.9l-1.8-1.8
	v-2.4h2.2v1.5l0.5,0.5h6.1l0.5-0.5V34l-0.5-0.5h-7l-1.8-1.8v-4.5l1.8-1.8H176.3z"/>
<path class="st0" d="M57.6,25.1h8.3l2,2v4.1l1.8,1.8v5.3l-2,2H57.6V25.1z M58.1,25.6v14.1h9.4l1.7-1.7v-4.9l-1.8-1.8v-4.1l-1.7-1.7
	H58.1z M73.1,25.1h2.7v12.1l0.4,0.4h5.9l0.4-0.4V25.1h2.7v13.2l-2,2h-8.1l-2-2V25.1z M73.7,25.6v12.5l1.7,1.7H83l1.7-1.7V25.6H83
	v11.8l-0.7,0.7H76l-0.7-0.7V25.6H73.7z M90.6,25.1h8.1l2,2v2.8H98v-1.7l-0.4-0.4h-5.9l-0.4,0.4v2.4l0.4,0.4h7l2,2v5.3l-2,2h-8.1
	l-2-2v-2.8h2.7v1.7l0.4,0.4h5.9l0.4-0.4v-3.1l-0.4-0.4h-7l-2-2v-4.7L90.6,25.1z M90.9,25.6l-1.7,1.7v4.2l1.7,1.7h7l0.7,0.7v3.5
	l-0.7,0.7h-6.3l-0.7-0.7V36h-1.7v2.1l1.7,1.7h7.7l1.7-1.7v-4.9l-1.7-1.7h-7l-0.7-0.7V28l0.7-0.7h6.3l0.7,0.7v1.4h1.7v-2.1l-1.7-1.7
	H90.9z M104.2,25.1h12.1v2.7h-4.7v9.7h4.7v2.7h-12.1v-2.7h4.7v-9.7h-4.7V25.1z M104.7,25.6v1.7h4.7v10.8h-4.7v1.7h11.1v-1.7h-4.7
	V27.3h4.7v-1.7H104.7z M119.7,25.1h2.6l6.8,10.1V25.1h2.7v15.2h-2.6l-6.8-10.1v10.1h-2.7V25.1z M120.2,25.6v14.1h1.7V28.4l7.6,11.3
	h1.8V25.6h-1.7v11.3L122,25.6H120.2z M137.2,25.1h10.1v2.7h-9l-0.4,0.4v2.6h7v2.7h-7v4h9.4v2.7h-12.1V27.1L137.2,25.1z M137.4,25.6
	l-1.7,1.7v12.5h11.1v-1.7h-9.4v-5h7v-1.7h-7V28l0.7-0.7h8.7v-1.7H137.4z M152.7,25.1h8.1l2,2v2.8h-2.7v-1.7l-0.4-0.4h-5.9l-0.4,0.4
	v2.4l0.4,0.4h7l2,2v5.3l-2,2h-8.1l-2-2v-2.8h2.7v1.7l0.4,0.4h5.9l0.4-0.4v-3.1l-0.4-0.4h-7l-2-2v-4.7L152.7,25.1z M152.9,25.6
	l-1.7,1.7v4.2l1.7,1.7h7l0.7,0.7v3.5l-0.7,0.7h-6.3l-0.7-0.7V36h-1.7v2.1l1.7,1.7h7.7l1.7-1.7v-4.9l-1.7-1.7h-7l-0.7-0.7V28l0.7-0.7
	h6.3l0.7,0.7v1.4h1.7v-2.1l-1.7-1.7H152.9z M168.3,25.1h8.1l2,2v2.8h-2.7v-1.7l-0.4-0.4h-5.9l-0.4,0.4v2.4l0.4,0.4h7l2,2v5.3l-2,2
	h-8.1l-2-2v-2.8h2.7v1.7l0.4,0.4h5.9l0.4-0.4v-3.1l-0.4-0.4h-7l-2-2v-4.7L168.3,25.1z M168.5,25.6l-1.7,1.7v4.2l1.7,1.7h7l0.7,0.7
	v3.5l-0.7,0.7h-6.3l-0.7-0.7V36h-1.7v2.1l1.7,1.7h7.7l1.7-1.7v-4.9l-1.7-1.7h-7l-0.7-0.7V28l0.7-0.7h6.3l0.7,0.7v1.4h1.7v-2.1
	l-1.7-1.7H168.5z M59.8,27.3H65l0.7,0.7v3.5h-5.9V27.3z M60.3,27.8V31h4.8v-2.8l-0.4-0.4H60.3z M59.8,33.2h7l0.7,0.7v3.5l-0.7,0.7
	h-7V33.2z M60.3,33.7v3.8h6.3l0.4-0.4v-3.1l-0.4-0.4H60.3z"/>
<path class="st2" d="M67.4,6.1l1.8,1.8V11H67V8.8l-0.5-0.5h-6.1l-0.5,0.5V18l0.5,0.5h6.1L67,18v-2.2h2.2v3.1l-1.8,1.8h-7.9l-1.8-1.8
	v-11l1.8-1.8H67.4z"/>
<path class="st2" d="M82.9,6.1l1.8,1.8V14l-1.8,1.8h-3.1l4.9,4.9h-3.1l-4.9-4.9h-1.4v4.9h-2.2V6.1H82.9z M82.5,13.1V8.8L82,8.3h-6.7
	v5.4H82L82.5,13.1z"/>
<path class="st2" d="M98.4,6.1l1.8,1.8v11l-1.8,1.8h-7.9l-1.8-1.8v-11l1.8-1.8H98.4z M98,18V8.8l-0.5-0.5h-6.1l-0.5,0.5V18l0.5,0.5
	h6.1L98,18z"/>
<path class="st2" d="M113.9,6.1l1.8,1.8v2.4h-2.2V8.8L113,8.3h-6.1l-0.5,0.5v2.6l0.5,0.5h7l1.8,1.8v5.1l-1.8,1.8H106l-1.8-1.8v-2.4
	h2.2V18l0.5,0.5h6.1l0.5-0.5v-3.3l-0.5-0.5h-7l-1.8-1.8V7.9l1.8-1.8H113.9z"/>
<path class="st2" d="M129.5,6.1l1.8,1.8v2.4h-2.2V8.8l-0.5-0.5h-6.1l-0.5,0.5v2.6l0.5,0.5h7l1.8,1.8v5.1l-1.8,1.8h-7.9l-1.8-1.8
	v-2.4h2.2V18l0.5,0.5h6.1l0.5-0.5v-3.3l-0.5-0.5h-7l-1.8-1.8V7.9l1.8-1.8H129.5z"/>
<path class="st2" d="M138,8.3l-0.5,0.5v3h7V14h-7v6.7h-2.2V7.9l1.8-1.8h9.8v2.2H138z"/>
<path class="st2" d="M157.7,8.3v10.2h4.7v2.2h-11.6v-2.2h4.7V8.3h-4.7V6.1h11.6v2.2H157.7z"/>
</svg>
